X:1
T:Ecce Venit, CMD
T:Ecce Venit, CMD
T:L. Marshall, 1894 
T:Public Domain Courtesy of the Cyber Hymnal™
C:L. Marshall, 1894
Z:Public Domain
Z:Courtesy of the Cyber Hymnal™
%%score ( 1 2 ) ( 3 4 )
L:1/8
Q:1/4=105
M:4/4
K:Ab
V:1 treble 
V:2 treble 
V:3 bass 
V:4 bass 
V:1
 (EA) | [Ac]2 ([Ac][EB]) (BA) (AG) | ([EG]3 [DF]) [DF]2 ([FB][FB]) | [EA]2 [EA]2 [EG]2 [EG]2 | %4
 [EA]4 z2 (EA) | [Ac]2 ([Ac][EB]) (BA) (AG) | ([EG]3 [DF]) [DF]2 ([FB][FB]) | %7
 [EA]2 [EA]2 [EG]2 [EG]2 | [EA]4 z2 [DF]2 | [FB]2 [FB]2 [F=A]2 (Bc) | (d3 c) [FB]2 [EB][EB] | %11
 [EA]2 [EB]2 [EA]2 [=DA]2 | [EB]4 z2 (EA) | [Ac]2 ([Ac][EB]) (BA) (AG) | %14
 [EG]3 [DF] [DF]2 ([FB][FB]) | [EA]2 [EA]2 [EG]2 [EG]2 | [EA]6 |] %17
V:2
 E2 | x4 E2 E2 | x8 | x8 | x6 E2 | x4 E2 E2 | x8 | x8 | x8 | x6 F2 | F4 x4 | x8 | x6 E2 | %13
 x4 E2 E2 | x8 | x8 | x6 |] %17
V:3
 [A,,C]2 | [A,E]2 (ED) (DC) (CB,) | ([D,A,]3 [D,A,]) [D,A,]2 ([B,,D][B,,D]) | %3
 [E,C]2 [E,C]2 [E,B,]2 [E,B,D]2 | [A,,C]4 z2 [A,,C]2 | [A,E]2 (ED) (DC) (CB,) | %6
 ([D,A,]3 [D,A,]) [D,A,]2 ([B,,D][B,,D]) | [E,C]2 [E,C]2 [E,B,]2 [E,B,D]2 | [A,,C]4 z2 [B,,B,]2 | %9
 [B,,D]2 [B,,D]2 [B,,C]2 (DE) | (F3 E) [B,,D]2 [G,D][G,D] | [A,C]2 [G,D]2 [A,C]2 [F,A,]2 | %12
 [E,G,]4 z2 [A,,C]2 | [A,E]2 (ED) (DC) (CB,) | [D,A,]3 [D,A,] [D,A,]2 ([B,,D][B,,D]) | %15
 [E,C]2 [E,C]2 [E,B,]2 [E,B,D]2 | [A,,C]6 |] %17
V:4
 x2 | x2 A,2 A,2 C,2 | x8 | x8 | x8 | x2 A,2 A,2 C,2 | x8 | x8 | x8 | x6 B,,2 | B,,4 x4 | x8 | x8 | %13
 x2 A,2 A,2 C,2 | x8 | x8 | x6 |] %17

